img/icones/leao.svg

<?xml version="1.0" encoding="utf-8"?>
<!-- Generator: Adobe Illustrator 21.0.2, SVG Export Plug-In . SVG Version: 6.00 Build 0)  -->
<svg version="1.1" xmlns="http://www.w3.org/2000/svg" xmlns:xlink="http://www.w3.org/1999/xlink" x="0px" y="0px"
	 viewBox="0 0 24 24" style="enable-background:new 0 0 24 24;" xml:space="preserve">
<style type="text/css">
	.st0{fill:#FFFFFF;}
	.st1{fill:#B07DFB;}
	.st2{fill:none;stroke:#8844EE;stroke-linecap:round;stroke-linejoin:round;stroke-miterlimit:10;}
	.st3{fill:none;}
</style>
<g id="Duotone">
	<polygon class="st0" points="13.5,7.5 14,6.5 16,6 17,8 16,9.5 17.5,14 15.5,15 15.5,18 11.5,20 7.5,18 7.5,15 5.5,14 7,9.5 6,8 
		7,6 9,6.5 9.5,7.5 	"/>
	<polygon class="st1" points="9.5,13.5 13.5,13.5 11.5,16 	"/>
	<path class="st1" d="M21.5,3.5l-4,1.5L19,0.5L12.5,2l-1,2L10,2L4,0.5L5.5,5l-4-1.5l2,4l-2,6l6,8l4,2l4-2l6-8l-2-6L21.5,3.5z
		 M15.5,15v3l-4,2l-4-2v-3l-2-1L7,9.5L6,8l1-2l2,0.5l0.5,1h4l0.5-1L16,6l1,2l-1,1.5l1.5,4.5L15.5,15z"/>
	<polygon class="st2" points="13.5,7.5 14,6.5 16,6 17,8 16,9.5 17.5,14 15.5,15 15.5,18 11.5,20 7.5,18 7.5,15 5.5,14 7,9.5 6,8 
		7,6 9,6.5 9.5,7.5 	"/>
	<polygon class="st2" points="11.5,4 12.5,2 19,0.5 17.5,5 21.5,3.5 19.5,7.5 21.5,13.5 15.5,21.5 11.5,23.5 7.5,21.5 1.5,13.5 
		3.5,7.5 1.5,3.5 5.5,5 4,0.5 10,2 	"/>
	<line class="st2" x1="9.5" y1="10.5" x2="9.5" y2="11.5"/>
	<line class="st2" x1="13.5" y1="10.5" x2="13.5" y2="11.5"/>
	<polygon class="st2" points="9.5,13.5 13.5,13.5 11.5,16 	"/>
	<line class="st2" x1="11.5" y1="16" x2="11.5" y2="17.5"/>
</g>
<g id="Frames-24px">
	<rect class="st3" width="24" height="24"/>
</g>
</svg>

<svg width="24" height="24" viewBox="0 0 24 24" fill="none" xmlns="http://www.w3.org/2000/svg">
<g clip-path="url(#clip0_1_67)">
<path d="M13.5 7.5L14 6.5L16 6L17 8L16 9.5L17.5 14L15.5 15V18L11.5 20L7.5 18V15L5.5 14L7 9.5L6 8L7 6L9 6.5L9.5 7.5H13.5Z" fill="#F4F5EB"/>
<path d="M9.5 13.5H13.5L11.5 16L9.5 13.5Z" fill="#9B9E5A"/>
<path d="M21.5 3.5L17.5 5L19 0.5L12.5 2L11.5 4L10 2L4 0.5L5.5 5L1.5 3.5L3.5 7.5L1.5 13.5L7.5 21.5L11.5 23.5L15.5 21.5L21.5 13.5L19.5 7.5L21.5 3.5ZM15.5 15V18L11.5 20L7.5 18V15L5.5 14L7 9.5L6 8L7 6L9 6.5L9.5 7.5H13.5L14 6.5L16 6L17 8L16 9.5L17.5 14L15.5 15Z" fill="#9B9E5A"/>
<path d="M13.5 7.5L14 6.5L16 6L17 8L16 9.5L17.5 14L15.5 15V18L11.5 20L7.5 18V15L5.5 14L7 9.5L6 8L7 6L9 6.5L9.5 7.5H13.5Z" stroke="#858941" stroke-miterlimit="10" stroke-linecap="round" stroke-linejoin="round"/>
<path d="M11.5 4L12.5 2L19 0.5L17.5 5L21.5 3.5L19.5 7.5L21.5 13.5L15.5 21.5L11.5 23.5L7.5 21.5L1.5 13.5L3.5 7.5L1.5 3.5L5.5 5L4 0.5L10 2L11.5 4Z" stroke="#858941" stroke-miterlimit="10" stroke-linecap="round" stroke-linejoin="round"/>
<path d="M9.5 10.5V11.5" stroke="#858941" stroke-miterlimit="10" stroke-linecap="round" stroke-linejoin="round"/>
<path d="M13.5 10.5V11.5" stroke="#858941" stroke-miterlimit="10" stroke-linecap="round" stroke-linejoin="round"/>
<path d="M9.5 13.5H13.5L11.5 16L9.5 13.5Z" stroke="#858941" stroke-miterlimit="10" stroke-linecap="round" stroke-linejoin="round"/>
<path d="M11.5 16V17.5" stroke="#858941" stroke-miterlimit="10" stroke-linecap="round" stroke-linejoin="round"/>
</g>
<defs>
<clipPath id="clip0_1_67">
<rect width="24" height="24" fill="white"/>
</clipPath>
</defs>
</svg>
